X:309
T:Funny Eyes(). JaW.309
T:Salmon Tails,aka. JaW.309
T:Salmon Tails up the Water,aka. JaW.309
T:Trip to Aberdeen,aka. JaW.309
M:C|
L:1/8
Q:1/2=90
S:James Winder Ms, Lancashire, 1835-41
R:.Reel
O:England
A:Wyresdale,Lancashire
N:Hard To Read The Title..
Z:vmp.Chris Partington, Aug 2004
K:C
c2|GEGc c2c2|efde cAA2|GEGc c2c2|efde c2:|!
|:e2|egg2 faa2|gede cAA2|egg2 faa2|c'bag a2a2|!
egg2 faa2|gede BAA2|GEGc c2c2|efde c2:|]
